X:255
T:Saint Anne's Reel
R:Reel
M:2/4
L:1/16
K:D
A2|f2fg fedB|A2FG AFAd|BGGF G2FG|BAAG A2de|
f2fg fedB|A2FG AFAd|BGBd cAce|dfec d2:|
|:ag|fdfa fdfa|aggf g2gf|edcB ABce|baa^g a2a=g|
fdfa fdfa|aggf g2gf|edcB ABce|fdec d2:|
